svg/battery_low.svg

<svg xmlns="http://www.w3.org/2000/svg" viewBox="0 0 24 24"><path d="M16 20H8V6h8m.67-2H15V2H9v2H7.33C6.6 4 6 4.6 6 5.33v15.34C6 21.4 6.6 22 7.33 22h9.34c.74 0 1.33-.59 1.33-1.33V5.33C18 4.6 17.4 4 16.67 4M15 16H9v3h6z"/></svg>

<?xml version="1.0" encoding="UTF-8"?><!DOCTYPE svg PUBLIC "-//W3C//DTD SVG 1.1//EN" "http://www.w3.org/Graphics/SVG/1.1/DTD/svg11.dtd"><svg xmlns="http://www.w3.org/2000/svg" xmlns:xlink="http://www.w3.org/1999/xlink" version="1.1" id="mdi-battery-low" width="24" height="24" viewBox="0 0 24 24"><path d="M16 20H8V6H16M16.67 4H15V2H9V4H7.33C6.6 4 6 4.6 6 5.33V20.67C6 21.4 6.6 22 7.33 22H16.67C17.41 22 18 21.41 18 20.67V5.33C18 4.6 17.4 4 16.67 4M15 16H9V19H15V16" /></svg>
